tools/download-figma-icons/icons/outlined-large/wind-power.svg

<svg width="64" height="64" viewBox="0 0 64 64" fill="none" xmlns="http://www.w3.org/2000/svg">
<path fill-rule="evenodd" clip-rule="evenodd" d="M36.4594 38.1413L57.1853 50.1073L57.9983 48.6973L56.5494 47.4383C56.5104 47.4093 56.4764 47.3773 56.4414 47.3443L43.0034 35.6754L38.3104 34.7134C38.0434 36.0394 37.3844 37.2233 36.4594 38.1413ZM31.7464 29.6924C29.7065 29.6924 28.0485 31.3504 28.0485 33.3894C28.0485 35.4284 29.7065 37.0863 31.7464 37.0863C33.7854 37.0863 35.4434 35.4284 35.4434 33.3894C35.4434 31.3504 33.7854 29.6924 31.7464 29.6924ZM7.30154 47.8023L24.1375 41.9963L27.3245 38.4063C26.3425 37.5413 25.6205 36.3953 25.2775 35.0934L4.54855 47.0613L5.36355 48.4713L7.18354 47.8433C7.22254 47.8283 7.26154 47.8153 7.30154 47.8023ZM33.5044 26.9344V3.00048H31.8764L31.5104 4.88947C31.5048 4.93099 31.4965 4.96983 31.488 5.00936L31.488 5.00941L31.4879 5.00947L31.4864 5.01647L28.0965 22.4984L29.6115 27.0464C30.2825 26.8204 30.9985 26.6924 31.7464 26.6924C32.3554 26.6924 32.9434 26.7814 33.5044 26.9344ZM61.1563 25.1784C63.0143 32.1134 62.3533 39.4113 59.3143 45.8663L60.9003 47.2433C61.4433 47.7143 61.5753 48.5033 61.2153 49.1263L59.0333 52.9063C58.7553 53.3873 58.2503 53.6563 57.7333 53.6563C57.4783 53.6563 57.2204 53.5913 56.9844 53.4553L33.4394 39.8613C32.8974 40.0033 32.3314 40.0863 31.7464 40.0863C31.1585 40.0863 30.5895 40.0033 30.0455 39.8593L26.1215 44.2823C25.9505 44.4743 25.7315 44.6203 25.4885 44.7043L18.4325 47.1373C20.3385 48.9833 22.6175 50.4273 25.1295 51.3513C25.9075 51.6373 26.3055 52.5003 26.0205 53.2773C25.7965 53.8833 25.2225 54.2593 24.6125 54.2593C24.4405 54.2593 24.2655 54.2303 24.0945 54.1683C20.7155 52.9243 17.7035 50.8733 15.3085 48.2143L10.1345 49.9993C13.7825 54.9143 18.9595 58.4673 24.9285 60.0663C25.7285 60.2813 26.2035 61.1033 25.9895 61.9043C25.8095 62.5742 25.2035 63.0152 24.5405 63.0152C24.4125 63.0152 24.2825 62.9992 24.1525 62.9642C17.2175 61.1063 11.2275 56.8853 7.15754 51.0263L5.17155 51.7113C5.01055 51.7663 4.84555 51.7933 4.68255 51.7933C4.15955 51.7933 3.65756 51.5173 3.38356 51.0433L1.20156 47.2623C1.00157 46.9183 0.948566 46.5083 1.05057 46.1243C1.15457 45.7403 1.40556 45.4123 1.74956 45.2133L25.2925 31.6214C25.6025 30.4954 26.1935 29.4844 26.9925 28.6774L25.1255 23.0724C25.0435 22.8284 25.0275 22.5664 25.0765 22.3134L26.4975 14.9864C23.9455 15.7134 21.5555 16.9644 19.4985 18.6784C19.2185 18.9124 18.8785 19.0264 18.5395 19.0264C18.1105 19.0264 17.6835 18.8424 17.3865 18.4864C16.8565 17.8504 16.9425 16.9044 17.5795 16.3744C20.3435 14.0704 23.6265 12.4864 27.1255 11.7424L28.1705 6.35346C22.0875 7.05446 16.4225 9.77745 12.0515 14.1464C11.7585 14.4394 11.3745 14.5864 10.9915 14.5864C10.6075 14.5864 10.2235 14.4394 9.93053 14.1464C9.34453 13.5604 9.34453 12.6114 9.93053 12.0254C15.0075 6.94946 21.6585 3.87247 28.7675 3.27748L29.1665 1.21448C29.3035 0.508486 29.9205 0.000488279 30.6395 0.000488279H35.0044C35.8324 0.000488279 36.5044 0.671486 36.5044 1.50048V28.6834C37.3034 29.4914 37.8924 30.5024 38.2014 31.6284L43.9914 32.8154C44.2444 32.8674 44.4794 32.9834 44.6734 33.1524L50.3084 38.0453C50.9554 35.4724 51.0664 32.7784 50.6094 30.1394C50.4684 29.3234 51.0154 28.5464 51.8314 28.4054C52.6534 28.2694 53.4244 28.8124 53.5664 29.6284C54.1794 33.1744 53.9084 36.8103 52.8034 40.2113L56.9474 43.8103C59.3823 38.1923 59.8573 31.9254 58.2573 25.9564C58.0433 25.1554 58.5183 24.3334 59.3183 24.1184C60.1243 23.9084 60.9413 24.3784 61.1563 25.1784ZM5.10035 23.1047C4.89435 23.1047 4.68535 23.0627 4.48535 22.9717C3.72936 22.6307 3.39336 21.7427 3.73436 20.9887C4.25035 19.8427 4.84435 18.7197 5.50035 17.6497C5.93335 16.9417 6.85934 16.7227 7.56234 17.1537C8.26934 17.5857 8.49134 18.5097 8.05834 19.2157C7.46834 20.1797 6.93334 21.1907 6.46834 22.2207C6.21835 22.7767 5.67235 23.1047 5.10035 23.1047ZM34.7128 60.8651C33.5888 60.9771 32.4428 61.0191 31.3148 60.9911C30.4669 60.9791 29.7979 61.6251 29.7759 62.453C29.7559 63.281 30.4099 63.969 31.2378 63.991C31.4908 63.997 31.7448 64 31.9988 64C33.0048 64 34.0158 63.95 35.0118 63.849C35.8368 63.767 36.4378 63.032 36.3548 62.208C36.2718 61.3841 35.5338 60.7711 34.7128 60.8651ZM57.1841 20.7459C56.6531 20.7459 56.1371 20.4629 55.8661 19.9629C55.3261 18.9709 54.7171 18.0019 54.0571 17.0829C53.5741 16.4109 53.7271 15.4739 54.4001 14.9899C55.0711 14.5079 56.0091 14.6589 56.4931 15.3329C57.2251 16.3519 57.901 17.4269 58.501 18.5289C58.897 19.2569 58.628 20.1679 57.9 20.5639C57.6731 20.6879 57.427 20.7459 57.1841 20.7459Z" fill="black"/>
</svg>

<svg xmlns="http://www.w3.org/2000/svg" width="64" height="64" fill="none" viewBox="0 0 64 64"><path fill="currentColor" fill-rule="evenodd" d="m36.46 38.141 20.725 11.966.813-1.41-1.449-1.259a1 1 0 0 1-.108-.094L43.003 35.675l-4.693-.962a6.7 6.7 0 0 1-1.85 3.428m-4.714-8.449a3.7 3.7 0 0 0-3.697 3.697 3.7 3.7 0 0 0 3.697 3.697 3.7 3.7 0 0 0 3.697-3.697 3.7 3.7 0 0 0-3.697-3.697M7.302 47.802l16.836-5.806 3.186-3.59a6.7 6.7 0 0 1-2.047-3.313L4.55 47.061l.815 1.41 1.82-.628q.058-.022.118-.04m26.202-20.868V3h-1.628l-.366 1.89q-.009.06-.022.12l-.002.006-3.39 17.482 1.515 4.548a6.7 6.7 0 0 1 2.135-.354c.61 0 1.197.09 1.758.242m27.652-1.756a30.15 30.15 0 0 1-1.842 20.688l1.586 1.377c.543.471.675 1.26.315 1.883l-2.182 3.78a1.5 1.5 0 0 1-2.049.55L33.44 39.86a6.7 6.7 0 0 1-1.693.225 6.6 6.6 0 0 1-1.7-.227l-3.924 4.423a1.5 1.5 0 0 1-.634.422l-7.055 2.433a19.1 19.1 0 0 0 6.697 4.214 1.5 1.5 0 0 1 .89 1.926 1.503 1.503 0 0 1-1.925.891 22.1 22.1 0 0 1-8.786-5.954L10.135 50a27.13 27.13 0 0 0 14.794 10.067 1.5 1.5 0 0 1-.776 2.898A30.14 30.14 0 0 1 7.157 51.026l-1.986.685a1.5 1.5 0 0 1-1.788-.668l-2.182-3.78a1.5 1.5 0 0 1 .548-2.05l23.543-13.592a6.7 6.7 0 0 1 1.7-2.944l-1.867-5.605a1.5 1.5 0 0 1-.05-.759l1.421-7.327a19.1 19.1 0 0 0-6.998 3.692 1.499 1.499 0 1 1-1.919-2.304 22.1 22.1 0 0 1 9.545-4.632l1.046-5.389a27.16 27.16 0 0 0-16.12 7.793 1.496 1.496 0 0 1-2.12 0 1.5 1.5 0 0 1 0-2.12 30.15 30.15 0 0 1 18.837-8.749l.398-2.063A1.5 1.5 0 0 1 30.64 0h4.364a1.5 1.5 0 0 1 1.5 1.5v27.183a6.7 6.7 0 0 1 1.697 2.945l5.79 1.187c.253.052.488.168.682.337l5.635 4.893c.647-2.573.758-5.267.301-7.906a1.5 1.5 0 1 1 2.957-.51 22.1 22.1 0 0 1-.763 10.582l4.144 3.6a27.14 27.14 0 0 0 1.31-17.855 1.502 1.502 0 0 1 2.9-.778M5.1 23.105a1.498 1.498 0 0 1-1.366-2.116 30 30 0 0 1 1.766-3.34 1.5 1.5 0 0 1 2.558 1.567 27 27 0 0 0-1.59 3.005c-.25.556-.796.884-1.368.884m29.613 37.76c-1.124.112-2.27.154-3.398.126a1.496 1.496 0 0 0-1.54 1.462 1.5 1.5 0 0 0 1.463 1.538q.38.009.76.009c1.007 0 2.018-.05 3.014-.151a1.5 1.5 0 0 0 1.343-1.641c-.083-.824-.821-1.437-1.642-1.343m22.471-40.12a1.5 1.5 0 0 1-1.318-.782 28 28 0 0 0-1.809-2.88 1.5 1.5 0 0 1 2.436-1.75 31 31 0 0 1 2.008 3.196 1.5 1.5 0 0 1-1.317 2.217" clip-rule="evenodd"/></svg>
